X:1
T: The Merry Harriers
C:
R:Jig
Q:180
K:Em
M:6/8
L:1/16
|:B2|E4B2 B2A2B2|E4B2 B2A2B2|d2e2d2 d2^c2B2|A2F2D2 D2E2F2|
E4B2 B2A2B2|E4B2 B2A2B2|^c2d2B2 A2F2A2|B2G2E2 E4:|
|:B2|e2B2e2 g2f2e2|B2e2f2 g2f2e2|f2d2A2 F2A2d2|f2d2f2 a2g2f2|
g2b2a2 g2f2e2|f2a2g2 f2e2d2|^c2d2B2 A2F2A2|B2G2E2 E4:|
